src/images/tw_share_icon.svg

<?xml version="1.0" encoding="UTF-8"?>
<svg width="50px" height="36px" viewBox="0 0 50 36" version="1.1" xmlns="http://www.w3.org/2000/svg" xmlns:xlink="http://www.w3.org/1999/xlink">
    <!-- Generator: Sketch 42 (36781) - http://www.bohemiancoding.com/sketch -->
    <title>Group 6</title>
    <desc>Created with Sketch.</desc>
    <defs></defs>
    <g id="Page-1" stroke="none" stroke-width="1" fill="none" fill-rule="evenodd">
        <g id="Social-Share-Header-Copy" transform="translate(-60.000000, -5.000000)">
            <g id="Group-6" transform="translate(60.000000, 5.000000)">
                <rect id="Rectangle-15" fill="#55ACEE" x="0" y="0" width="50" height="36" rx="4"></rect>
                <path d="M25.1200283,14.1290412 L25.1607427,14.8004027 L24.4821692,14.7181952 C22.0121615,14.4030663 19.8542977,13.3343684 18.0221491,11.5395039 L17.1264321,10.6489223 L16.8957171,11.3065826 C16.4071441,12.7726169 16.7192879,14.3208588 17.7371482,15.3621542 C18.2800071,15.9376069 18.1578638,16.0198144 17.2214324,15.677283 C16.8957171,15.567673 16.6107162,15.4854655 16.5835732,15.5265692 C16.4885729,15.622478 16.8142882,16.8692923 17.0721462,17.3625375 C17.4250044,18.0476002 18.1442924,18.7189617 18.9314377,19.1162982 L19.5964397,19.431427 L18.8092944,19.4451283 C18.0492921,19.4451283 18.0221491,19.4588295 18.103578,19.7465559 C18.3750074,20.6371375 19.4471536,21.5825241 20.641443,21.9935618 L21.4828742,22.2812882 L20.7500147,22.7197283 C19.6642971,23.3499861 18.3885788,23.7062187 17.1128606,23.7336212 C16.5021444,23.7473225 16,23.8021275 16,23.8432313 C16,23.9802438 17.6557194,24.7475141 18.6192938,25.0489418 C21.5100171,25.9395234 24.9435992,25.5558882 27.5221786,24.0350489 C29.3543271,22.9526497 31.1864757,20.8015526 32.0414783,18.7189617 C32.5029083,17.6091601 32.9643383,15.5813743 32.9643383,14.6085851 C32.9643383,13.9783274 33.0050527,13.8961198 33.7650551,13.1425508 C34.2129136,12.7041106 34.6336292,12.2245667 34.7150581,12.0875541 C34.8507728,11.8272303 34.8372013,11.8272303 34.1450563,12.0601516 C32.9914813,12.4711893 32.8286236,12.4163843 33.3986254,11.7998278 C33.819341,11.3613876 34.3214854,10.5667148 34.3214854,10.3337934 C34.3214854,10.2926897 34.1179133,10.3611959 33.8871983,10.4845072 C33.6429119,10.6215198 33.100053,10.8270386 32.6929089,10.9503499 L31.9600495,11.1832713 L31.2950474,10.7311298 C30.9286177,10.4845072 30.4129019,10.2104821 30.1414724,10.1282746 C29.4493274,9.93645702 28.3907527,9.96385953 27.7664651,10.1830796 C26.0700312,10.7996361 24.9978851,12.3889817 25.1200283,14.1290412 Z" id="Shape" fill="#FFFFFF"></path>
            </g>
        </g>
    </g>
</svg>

<svg viewBox="0 0 50 36" xmlns="http://www.w3.org/2000/svg"><g fill="none" fill-rule="evenodd"><rect fill="#55ACEE" width="50" height="36" rx="4"/><path d="M25.12 14.129l.04.671-.678-.082c-2.47-.315-4.628-1.384-6.46-3.178l-.896-.891-.23.658c-.489 1.466-.177 3.014.841 4.055.543.576.42.658-.516.315-.325-.11-.61-.192-.637-.15-.095.095.23 1.342.488 1.836.353.685 1.072 1.356 1.86 1.753l.664.315-.787.014c-.76 0-.787.014-.705.302.271.89 1.343 1.836 2.537 2.247l.842.287-.733.439a7.64 7.64 0 0 1-3.637 1.014c-.61.013-1.113.068-1.113.11 0 .136 1.656.904 2.62 1.205 2.89.89 6.324.507 8.902-1.014 1.832-1.082 3.664-3.233 4.52-5.316.46-1.11.922-3.138.922-4.11 0-.63.041-.713.801-1.466.448-.439.869-.918.95-1.055.136-.26.122-.26-.57-.028-1.154.411-1.316.356-.746-.26.42-.439.922-1.233.922-1.466 0-.041-.203.027-.434.15-.244.138-.787.343-1.194.466l-.733.233-.665-.452c-.366-.246-.882-.52-1.154-.603-.692-.192-1.75-.164-2.375.055-1.696.617-2.768 2.206-2.646 3.946z" fill="#FFF"/></g></svg>
